X:1
T:Blue-Eyed Lover
M:6/4
L:1/4
K:F
 C F G| A3 c d/2 c3/2| E G2 z C E| G3 c d c| A3 C F G| A3| c d c E G2|\
 z E F G3| A B A F3|
